other/TinyScanner.svg

<?xml version="1.0" encoding="UTF-8" standalone="no"?>
<svg
   xmlns:dc="http://purl.org/dc/elements/1.1/"
   xmlns:cc="http://creativecommons.org/ns#"
   xmlns:rdf="http://www.w3.org/1999/02/22-rdf-syntax-ns#"
   xmlns:svg="http://www.w3.org/2000/svg"
   xmlns="http://www.w3.org/2000/svg"
   xmlns:sodipodi="http://sodipodi.sourceforge.net/DTD/sodipodi-0.dtd"
   xmlns:inkscape="http://www.inkscape.org/namespaces/inkscape"
   width="48"
   height="48"
   viewBox="0 0 48 48"
   version="1.1"
   id="svg4"
   sodipodi:docname="TinyScanner.svg"
   inkscape:version="0.92.3 (2405546, 2018-03-11)">
  <metadata
     id="metadata10">
    <rdf:RDF>
      <cc:Work
         rdf:about="">
        <dc:format>image/svg+xml</dc:format>
        <dc:type
           rdf:resource="http://purl.org/dc/dcmitype/StillImage" />
        <dc:title />
      </cc:Work>
    </rdf:RDF>
  </metadata>
  <defs
     id="defs8" />
  <sodipodi:namedview
     pagecolor="#858585"
     bordercolor="#666666"
     borderopacity="1"
     objecttolerance="10"
     gridtolerance="10"
     guidetolerance="10"
     inkscape:pageopacity="0"
     inkscape:pageshadow="2"
     inkscape:window-width="1920"
     inkscape:window-height="1046"
     id="namedview6"
     showgrid="false"
     inkscape:zoom="9.8333333"
     inkscape:cx="15.112147"
     inkscape:cy="29.674572"
     inkscape:window-x="0"
     inkscape:window-y="0"
     inkscape:window-maximized="1"
     inkscape:current-layer="svg4" />
  <path
     d="M 7 5 C 5.892 5 5 5.892 5 7 L 5 41 C 5 42.108 5.892 43 7 43 L 41 43 C 42.108 43 43 42.108 43 41 L 43 7 C 43 5.892 42.108 5 41 5 L 7 5 z M 32.054688 8.8457031 C 32.455017 8.9243551 33.183594 9.5667288 33.183594 9.8417969 C 33.183594 10.062737 32.699014 10.738842 28.484375 16.390625 C 26.821732 18.620211 25.358411 20.534132 25.232422 20.644531 C 24.908691 20.9282 23.991193 21.358149 23.708984 21.359375 C 23.538161 21.360114 23.472656 21.424018 23.472656 21.583984 C 23.472656 21.749785 23.516852 21.787572 23.650391 21.736328 C 23.975824 21.611449 25.457137 21.659084 25.71875 21.802734 C 25.857389 21.878864 28.636297 23.883456 31.894531 26.255859 C 35.885317 29.161654 37.845798 30.650884 37.902344 30.820312 C 37.948514 30.958641 37.948095 31.867242 37.902344 32.839844 C 37.806154 34.883779 37.760408 34.983449 36.802734 35.210938 C 36.379104 35.311568 36.241748 35.395062 36.195312 35.580078 C 36.082191 36.030793 35.905569 36.092072 33.078125 36.664062 C 32.526597 36.775636 31.149661 37.063042 30.017578 37.300781 C 24.128997 38.537391 23.963673 38.567241 23.109375 38.558594 C 22.602795 38.553494 22.111326 38.485066 21.894531 38.390625 C 21.467404 38.204557 21.223099 38.021271 20.416016 37.273438 C 20.087668 36.969192 18.149345 35.183113 16.107422 33.304688 C 12.929133 30.380888 12.384442 29.835997 12.326172 29.525391 C 12.279612 29.277231 12.087214 28.999683 11.716797 28.646484 L 11.175781 28.130859 L 11.142578 25.96875 C 11.110528 23.82712 11.111978 23.806696 11.339844 23.734375 C 11.466346 23.694225 12.216663 23.558604 13.007812 23.433594 C 14.110288 23.259389 14.447266 23.169404 14.447266 23.048828 C 14.447266 22.806513 14.086542 22.805891 12.597656 23.042969 C 10.695995 23.345808 10.594102 23.339381 10.304688 22.892578 C 10.045188 22.491955 9.9950792 21.904818 10.189453 21.539062 C 10.256843 21.412254 10.977622 20.358377 11.791016 19.197266 C 12.604409 18.036155 14.099564 15.898655 15.113281 14.447266 C 17.164152 11.510935 17.497789 11.112064 18.216797 10.744141 C 18.754075 10.469211 19.099047 10.410047 23.736328 9.8125 C 25.303828 9.6105163 27.740725 9.2966689 29.152344 9.1132812 C 30.563962 8.9298937 31.869777 8.8093744 32.054688 8.8457031 z M 30.197266 11.050781 C 29.560332 11.062481 27.93499 11.312276 23.683594 11.970703 C 20.266549 12.499912 19.884852 12.57795 19.417969 12.851562 C 19.037765 13.074376 18.575042 13.623826 17.154297 15.53125 C 16.171501 16.850706 14.816511 18.666545 14.144531 19.566406 C 13.47255 20.466267 12.921671 21.277202 12.919922 21.367188 C 12.915322 21.605145 13.132426 21.783203 13.425781 21.783203 C 13.566445 21.783203 14.732977 21.619344 16.017578 21.417969 C 17.302177 21.216594 18.685408 21.002599 19.091797 20.943359 C 22.365698 20.466119 23.923002 20.18536 24.158203 20.03125 C 24.548749 19.775355 30.6702 11.468056 30.628906 11.25 C 30.604674 11.122038 30.579426 11.043761 30.197266 11.050781 z M 23.189453 23.294922 C 22.63757 23.333626 21.820328 23.453863 20.464844 23.675781 C 19.071511 23.903895 16.992301 24.244807 15.845703 24.431641 C 14.699106 24.618474 13.761719 24.804971 13.761719 24.847656 C 13.761719 24.890346 14.889248 25.917591 16.267578 27.128906 C 17.645908 28.340222 19.557959 30.023149 20.517578 30.869141 C 21.477198 31.715132 22.355805 32.464789 22.470703 32.535156 C 22.741878 32.701232 23.916833 32.627503 25.373047 32.353516 C 26.964392 32.054106 29.176485 31.660928 32.015625 31.173828 C 34.327444 30.777199 34.659773 30.704216 34.546875 30.615234 C 34.522685 30.596164 33.814462 30.089625 32.972656 29.488281 C 32.130851 28.886937 29.922231 27.303029 28.064453 25.96875 C 26.206675 24.634471 24.5196 23.480957 24.316406 23.40625 C 24.026643 23.299714 23.741336 23.256218 23.189453 23.294922 z "
     id="rect2"
     style="fill:#ffffff" />
</svg>

<svg width="48" height="48" version="1.1" viewBox="0 0 48 48" xmlns="http://www.w3.org/2000/svg">
 <path d="m7 5c-1.108 0-2 0.892-2 2v34c0 1.108 0.892 2 2 2h34c1.108 0 2-0.892 2-2v-34c0-1.108-0.892-2-2-2h-34zm25.055 3.8457c0.40033 0.078652 1.1289 0.72103 1.1289 0.99609 0 0.22094-0.48458 0.89705-4.6992 6.5488-1.6626 2.2296-3.126 4.1435-3.252 4.2539-0.32373 0.28367-1.2412 0.71362-1.5234 0.71484-0.17082 7.39e-4 -0.23633 0.064643-0.23633 0.22461 0 0.1658 0.044196 0.20359 0.17774 0.15234 0.32543-0.12488 1.8067-0.077244 2.0684 0.066406 0.13864 0.07613 2.9175 2.0807 6.1758 4.4531 3.9908 2.9058 5.9513 4.395 6.0078 4.5645 0.04617 0.13833 0.045751 1.0469 0 2.0195-0.09619 2.0439-0.14194 2.1436-1.0996 2.3711-0.42363 0.10063-0.56099 0.18412-0.60742 0.36914-0.11312 0.45072-0.28974 0.51199-3.1172 1.084-0.55153 0.11157-1.9285 0.39898-3.0605 0.63672-5.8886 1.2366-6.0539 1.2665-6.9082 1.2578-0.50658-0.0051-0.99805-0.073528-1.2148-0.16797-0.42713-0.18607-0.67143-0.36935-1.4785-1.1172-0.32835-0.30425-2.2667-2.0903-4.3086-3.9688-3.1783-2.9238-3.723-3.4687-3.7812-3.7793-0.04656-0.24816-0.23896-0.52571-0.60938-0.87891l-0.54102-0.51562-0.033203-2.1621c-0.03205-2.1416-0.0306-2.1621 0.19727-2.2344 0.1265-0.04015 0.87682-0.17577 1.668-0.30078 1.1025-0.1742 1.4395-0.26419 1.4395-0.38477 0-0.24232-0.36072-0.24294-1.8496-0.005859-1.9017 0.30284-2.0036 0.29641-2.293-0.15039-0.2595-0.40062-0.30961-0.98776-0.11524-1.3535 0.06739-0.12681 0.78817-1.1807 1.6016-2.3418 0.81339-1.1611 2.3085-3.2986 3.3223-4.75 2.0509-2.9363 2.3845-3.3352 3.1035-3.7031 0.53728-0.27493 0.88225-0.33409 5.5195-0.93164 1.5675-0.20198 4.0044-0.51583 5.416-0.69922 1.4116-0.18339 2.7174-0.30391 2.9023-0.26758zm-1.8574 2.2051c-0.63693 0.0117-2.2623 0.2615-6.5137 0.91992-3.417 0.52921-3.7987 0.60725-4.2656 0.88086-0.3802 0.22281-0.84293 0.77226-2.2637 2.6797-0.9828 1.3195-2.3378 3.1353-3.0098 4.0352-0.67198 0.89986-1.2229 1.7108-1.2246 1.8008-0.0046 0.23796 0.2125 0.41602 0.50586 0.41602 0.14066 0 1.3072-0.16386 2.5918-0.36523 1.2846-0.20138 2.6678-0.41537 3.0742-0.47461 3.2739-0.47724 4.8312-0.758 5.0664-0.91211 0.39055-0.2559 6.512-8.5632 6.4707-8.7812-0.024232-0.12796-0.04948-0.20624-0.43164-0.19922zm-7.0078 12.244c-0.55188 0.038704-1.3691 0.15894-2.7246 0.38086-1.3933 0.22811-3.4725 0.56903-4.6191 0.75586-1.1466 0.18683-2.084 0.37333-2.084 0.41602 0 0.04269 1.1275 1.0699 2.5059 2.2812 1.3783 1.2113 3.2904 2.8942 4.25 3.7402 0.95962 0.84599 1.8382 1.5956 1.9531 1.666 0.27118 0.16608 1.4461 0.092347 2.9023-0.18164 1.5913-0.29941 3.8034-0.69259 6.6426-1.1797 2.3118-0.39663 2.6441-0.46961 2.5312-0.55859-0.02419-0.01907-0.73241-0.52561-1.5742-1.127-0.8418-0.60134-3.0504-2.1853-4.9082-3.5195s-3.5449-2.4878-3.748-2.5625c-0.28976-0.10654-0.57507-0.15003-1.127-0.11133z" fill="#fff"/>
</svg>
